X:1
T:Conquest, The
M:2/4
L:1/8
S:Thompson's Compleat Collection (1788)
Z:AK/Fiddler's Companion
K:D
dd d/c/B/A/ | dd d/c/B/A/ | ff f/d/c/d/ | gffe | ee a/^g/f/e/ | d/c/B/A/ eE |
f/^g/a/f/ Be | cA A2 :: d/e/d/e/ fd | g/f/e/d/ f/e/d/c/ | d/e/d/e/ g/f/e/d/ |
b/a/g/f/ e2 | f/d/B/d/ g/e/c/e/ | a/f/d/b/ a2 | b/a/g/f/ e/f/g/a/ | fd d2 :|
